X:176
T: Waise und Stiefmutter
N: Q1116C
O: Mitteleuropa, Deutschland (BRD) , Hessen
N: Melodievergleich zu Q0116, anderes Lied.
R: ???
M: 6/8
L: 1/16
K: G
D2 | G4B,2E4D2 | D2C2z6
FG | A4C2E4D2 | B,4z6
D2 | B4A2G4F2 | F2E2z6
EE | D4G2F2E2F2 | G4z6

@@@ Tune index: 1469
